!!!!SEGMENT: pl-wtm--r-1461--001-026_stefani-jozef--wszechstronne-cwiczenia-glosowe-l-appogiatura-z-gory.krn
!!!cenid: 18xx:2203
!!!COM: Stefani, Józef
!!!COM-rismID: pe30024097
!!!CDT: 1800/04/16-1876/03/19
!!!CNT: Polish
!!!GTL: Wszechstronne ćwiczenia głosowe
!!!OTL: L’Appogiatura z góry
!!!OMV: 026
!!!PDT:
!!!AGN: Secular
!!!YEC: Copyright 2022 Narodowy Instytut Fryderyka Chopina (https://polishscores.org)
!!!YEM: License CC-BY-4.0 (https://creativecommons.org/licenses/by/4.0)
!!!SMS-siglum: PL-Wtm
!!!SMS-shelfmark: R 1461
!!!SMS-shelfwork: 001-026 G
!!!SMS-variant:
!!!SMS-altvar:
!!!NIFC-rismSourceID: 1001120710
!!!NIFC-rismChildID: 1001120710
!!!NIFC-islandoraID: pl-wtm:25869
!!!URL-pdf-islandora: https://repozytorium.nifc.pl/islandora/object/pl-wtm%3A25869/datastream/PDF/view
!!!URL-scan: https://polish.musicsources.pl/pl/lokalizacje/galeria/rekopisy/6276/24 @EN{Scan on Polish Music Sources Website} @PL{Skany w portalu Dziedzictwo Muzyki Polskiej w otwartym dostępie}
!!!IIIF:
!!!ONB-nifc: UWAGA: skan 0024, s. 45
!!!OMD: Allegro
!!!AIN: 1 empty 1 tenor
!!!key:
**kern	**kern	**kern
*part2	*part2	*part1
*staff3	*staff2	*staff1
*Iempty	*Iforte	*Itenor
*	*I"Fortepian	*I"Sopran/Tenor
*clefF4	*clefG2	*clefG2
*k[]	*k[]	*k[]
*C:	*C:	*C:
*M3/4	*M3/4	*M3/4
*all\right	*all\right	*all\right
=1	=1	=1
4CC/	2c 2G< 2E</	2c/
*2\right	*	*
2C\	.	.
.	4e 4c 4G</	4e/
=2	=2	=2
.	.	(4qqe/
!	!	!LO:TX:t=P:global:problem=diminuendolike accent
4BBB/	4r	2d^/)
2BB\	4d 4G</	.
.	4f 4d 4G</	4f/
=3	=3	=3
.	.	(4qqf/
4BBB-X/	4r	2e^/)
2BB-X\	4e 4c 4G</	.
.	4g 4e 4c/	4g/
=4	=4	=4
.	.	(4qqg/
4AAA/	4r	2f^/)
4AA/	4f 4c/	.
4FF/	4a 4f 4c/	4a/
=5	=5	=5
.	.	(4qqa/
4EE/	4r	2g^/)
2E\	4g 4c/	.
.	4b-X 4g 4c/	4b-X/
!!LO:LB:g=original
=6	=6	=6
.	.	(4qqb-X/
4FF/	4r	2a^/)
2F\	4a 4f 4c/	.
.	4cc 4a 4f/	4cc\
=7	=7	=7
.	.	(4qqcc/
*	*	*2\right
4GG/	4r	2bn^<\)
2G\	4bn 4g/	.
.	4dd 4b 4g 4f/	4dd\
=8	=8	=8
.	.	(4qqdd/
[>4C/	4r	2cc^<\)
4c 4C\]	4cc 4g 4e/	.
4r;	4r;	4r;
=9	=9	=9
4c 4C\	4ee 4cc 4g\	4ee\
.	.	(4qqdd/
4r	4r	2cc^<\)
4A 4AA\	4cc 4f#X 4d/	.
=10	=10	=10
4B 4BB\	4dd 4g 4d/	4dd\
.	.	(4qqcc/
4r	4r	2b^<\)
4G 4GG/	4b 4g 4d/	.
!!LO:LB:g=original
=11	=11	=11
4A 4AA\	4cc 4f#X 4d/	4cc\
.	.	(>4qqb/
4r	4r	2a^<\)
4F#X 4FF#X/	4a 4d/	.
=12	=12	=12
4G 4GG/	4b 4g 4d/	4b\
.	.	(4qqa/
4r	4r	2g^/)
4E 4EE/	4g 4B/	.
=13	=13	=13
4F 4FF/	4a 4c/	4a/
.	.	(4qqg/
4r	4r	2f^/)
4D 4DD/	4f 4B/	.
=14	=14	=14
4E 4EE/	4g 4c/	4g/
.	.	(4qqf/
4r	4r	2e^/)
4C 4CC\	4e 4c 4G</	.
=15	=15	=15
4D 4DD\	4f 4B 4G</	4f/
.	.	(4qqe/
4GG\	4e 4c 4G</	2d^/)
4GG\	4d 4B 4G< 4F</	.
=16	=16	=16
4C\	4c 4G< 4E</	4c/
4r	4r	4r
4r	4r	4r
==	==	==
*-	*-	*-
!!!system-decoration: <s1>{(s2,s3)}
!!!RDF**kern: > = above
!!!RDF**kern: < = below
!!!ENC: Andrzej Kubiczek
!!!END: 2021-06-04
!!!ENC: Katarzyna Serwa
!!!END: 2021-05-18
